X:587
T:
S:Uppt. efter förespelning av en dräng från Gammelgarns socken (namnet har fallit mig ur minnet).
R:schottis
O:Gotland, Gammelgarn
M:2/4
L:1/16
K:A
cd|e2c2 f2c2|e3c A2c2|e3d B2f2|e3c A2c2|e2c2 f2c2|e3c A2c2|e3d
B2c2|A4z2::c2|e3d B2f2|e3c A2c2|e3d B2f2|e3c A2c2|e2c2 f2c2|e3c A2c2|e3d
B2c2|A4 z2:|

